!!!OTL: ES HAT E BUUR ES TOECHTERLI
!!!ARE: Europa, Mitteleuropa, Schweiz
!!!SCT: E0080
!!!YEM: Copyright 1995, estate of Helmut Schaffrath.
**kern
*ICvox
*Ivox
*M2/4
*k[b-]
*F:
{8c
=1
8f
8g
8a
8f
=2
4cc
4g
=3
4f
8r}
{8cc
=4
8cc
8dd
8ee
8cc
=5
4ff
4dd
=6
4cc
8r}
{8cc
=7
8ff
8ee
8dd
8cc
=8
8ff
8dd
8cc}
{8c
=9
8f
8g
8a
8b-
=10
4cc
4g
=11
4f
8r}
==
!!!AGN: erzaehlendes Volks - Lied, Sage, Liebe, Ballade ?
!!!ONB: ESAC (Essen Associative Code) Database: ERK1
!!!AMT: simple duple
!!!AIN: vox
!!!EED: Helmut Schaffrath
!!!EEV: 1.0
*-
